svgs/sharp-light/flute.svg

<svg xmlns="http://www.w3.org/2000/svg" viewBox="0 0 640 512"><!--! Font Awesome Pro 6.6.0 by @fontawesome - https://fontawesome.com License - https://fontawesome.com/license (Commercial License) Copyright 2024 Fonticons, Inc. --><path d="M160 320l0-128 448 0 0 128-448 0zm-32 0l-96 0 0-128 96 0 0 128zm16-160l-16 0-96 0L0 160l0 32L0 320l0 32 32 0 96 0 16 0 16 0 448 0 32 0 0-32 0-128 0-32-32 0-448 0-16 0zM320 280a24 24 0 1 0 0-48 24 24 0 1 0 0 48zm120-24a24 24 0 1 0 -48 0 24 24 0 1 0 48 0zm72 24a24 24 0 1 0 0-48 24 24 0 1 0 0 48z"/></svg>

<svg xmlns="http://www.w3.org/2000/svg" viewBox="0 0 640 512"><!--! Font Awesome Pro 6.4.2 by @fontawesome - https://fontawesome.com License - https://fontawesome.com/license (Commercial License) Copyright 2023 Fonticons, Inc. --><path d="M160 320V192H608V320H160zm-32 0H32V192h96V320zm16-160H128 32 0v32V320v32H32h96 16 16H608h32V320 192 160H608 160 144zM320 280a24 24 0 1 0 0-48 24 24 0 1 0 0 48zm120-24a24 24 0 1 0 -48 0 24 24 0 1 0 48 0zm72 24a24 24 0 1 0 0-48 24 24 0 1 0 0 48z"/></svg>
